X:175
T: Tuesday Afternoon
S: "Where's the Crack v/1" (DJ Taylor)
Z: B.Black
L: 1/8
Q: 325
M: 4/4
R: reel
K: D
FG | Adde fdcd | ABAG FDDe | fded cA A2 | AFEF D2 de |
fdec ^GA A2 | EFGE ABde | fdec dA (3Bcd | AFEF D2 :|
FG | Ad d2 fage | dfed cA A2 | G3 A GE E2 | edcA GE E2 |
dcde fage | dfed cA A2 | f2 af ge e2 | fage dA :|
